X:96
T:Philomele Waltz. Le4.096
M:3/4
L:1/8
Q:1/4=120
B:L.Leadley MS#4 c1850
Z:Village Music Project, 2016 Ruairidh Greig
K:C
ee|e2G2ee|e2G2fe|ez dz ^cz|d4gg|
g2d2gg|g2d2gg|az gz fz|g4ee|
e2G2ee|e2G2ee|ez dz cz|d4ed|
c2A2c'c'|c'z bz az|^g6|az gz f2|
a2g2f2||(f6|g4)c'2|c'6|b4z2|B6-|B4a2|a6|
f4z2|g4e'2|e'6|"dot added"d'3c'ba|agc'2c'2|agc'2c'2|agb2bB|c2z|]

